X:1
T:Gaudeamus Igitur
%%score 1 { ( 2 4 ) | 3 }
L:1/8
M:3/4
K:Bb
V:1 treble nm="Voice" snm="Vo."
V:2 treble nm="Piano" snm="Pno."
V:4 treble 
V:3 bass 
V:1
 B3/2 F/ F2 B2 | G3/2 G/ G4 | A3/2 B/ c2 A2 |"^Anonymous""^(Arranged by Ludwig Erk)" Bd B4 :| %4
w: 1.~Gau- de- a- mus|i- gi- tur.|ju- ve- nes dum|su- * mus;|
w: 2.~U- bi sunt qui|an- te nos|in mun- do fu-|e- * re;|
w: 3.~Vi- ta no- stra|bre- vis est.|bre- vi fi- ni-|e- * tur.|
 A3/2 B/ c2 c2 | d B c2 c2 | A3/2 B/ c2 c2 | d B c2 c2 | %8
w: 1.~post ju- cun- dam|ju- ven- tu- tem.|post mo- le- stam|se- ne- ctu- tem|
w: 2.~Va- di- te ad|su- pe- ros. *|tran- si- te ad|in- fe- ros. *|
w: 3.~ve- nit mors ve-|lo- ci- ter. *|ra- pit nos a-|tro- ci- ter. *|
"^4. Vivat Academia, vivant Professores! vivat membrum quodlibet. vivant membra quaelibet. |: sem-\nper sint in flore! :|\n5. Vivant omnes virgines, faciles, formosae! Vivant et mulieres, tenerae. amabiles, |: bonae, la -\nboriosae! :|\n6. Vivat et Respublica et qui illam regit! vivat nostra Civitas, Maecenatum caritas, |: quae nos hic\nprotegit! :|\n7. Pereat tristitia, pereant osores, pereat diabolus. quivis antiburschius |: atque irrisores! :|" B3/2 A/ G2 ec | %9
w: 1.~nos ha- be- bit *|
w: 2.~u- bi jam fu- *|
w: 3.~ne- mi- ni par- *|
 (B2 A2) !fermata!B2 | B3/2 A/ G2 ec | (d2 c2) B2 |] %12
w: hu- * mus.|nos ha- be- bit *|hu- * mus.|
w: e- * re,|u- bi jam fu- *|e- * re.|
w: ce- * tur,|ne- mi- ni par- *|ce- * tur.|
V:2
 [DFB]>[B,F] [B,F]2 [DFB]2 | [B,EG]>[B,EG] [B,EG]4 | [CEA]>[DB] [Ec]2 [CEFA]2 | %3
 [DFB][FBd] [DFB]4 :| [FA]>[FGB] [FAc]2 [FAc]2 | [FBd][FB] [FAc]2 [FAc]2 | %6
 [FA]>[FGB] [FAc]2 [FAc]2 | [FBd][FB] [FAc]2 [FAc]2 | [B,FB]>[B,FA] [B,EG]2 ([Ge][EGc]) | %9
 ([DFB]2 [CEA]2) !fermata![B,DB]2 | [B,=FB]>[B,FA] [B,EG]2 G2 | (([FBd]2 [EAc]2)) [DFB]2 |] %12
V:3
 [B,,,B,,]>[D,,D,] [D,,D,]2 [B,,,B,,]2 | [E,,E,]>[E,,E,] [E,,E,]4 | %2
 [F,,F,]>[F,,F,] [F,,F,]2 [F,,F,]2 | [B,,,B,,]2 [B,,,B,,]4 :| [F,,F,]>[F,,F,] [F,,F,]2 [F,,F,]2 | %5
 [B,,,B,,][D,,D,] [F,,F,]2 [F,,F,]2 | [F,,F,]>[F,,F,] [F,,F,]2 [F,,F,]2 | %7
 [B,,,B,,][D,,D,] [F,,F,]2 [F,,F,]2 | [D,,D,]>[D,,D,] [E,,E,]2 ([C,,C,][E,,E,]) | %9
 ([F,,F,]3 [^F,,^F,]) !fermata![G,,G,]2 | [D,,D,]>[D,,D,] [E,,E,]2 ([C,,C,][E,,E,]) | %11
 [F,,F,]2 [F,,,F,,]2 [B,,,B,,]2 |] %12
V:4
 x6 | x6 | x6 | x6 :| x6 | x6 | x6 | x6 | x6 | x6 | x2 x2 ec | x6 |] %12

